X:1
T:No.8 Cantare voglio sempre
T:No.8 Cantare voglio sempre
T:Giaovanni Domenico da Nola
C:Giaovanni Domenico da Nola
%%score [ 1 2 3 ]
L:1/8
Q:1/4=96
M:4/4
K:C
V:1 alto nm="Soprano"
V:2 tenor nm="Tenor"
V:3 bass-8 nm="Bass"
V:1
 G4 G2 G2 ||[M:2/2][K:treble] G4 G2 G2 | E3 D C2 C2 | z2 A2 A2 A2 |[M:3/2] F3 E D2 D2 z2 G2 |1 %5
w: Can- ta- re|1.Can- ta- re|vo- glio sem- pre,|Can- ta- re|vo- glio sem- pre, sem-|
w: |2.E ren- de-|re ne vo- glio,|E ren- de-|re ne Vo- glio vo-|
w: |3.Sia di chi|vol A- mo- re,|Sia di chi|Vol- A- mo- re, A-|
w: |4.M'ha- vea re-|dut- to di, *|m'ha- vea re-|dut- to di, * di|
[M:6/4] G4 E2 F4 E2 ||[M:2/2] D4 C4 :|2[M:3/2] G4 E2 F4 E2 || D4 C2 D2 E3 F | E2 E2 D3 E F3 G | %10
w: pre e star' in|gio- co.|pre e star' in|gio- co. Poi che son|tut- te rot- te le ca-|
w: glio gra- tia al|Cie- lo|Glio gra- tia al|Cie- lo. Che- m'ha- ve\_in|tut- to\_in tut- to li- be-|
w: mo- re\_a me me|bas- ta|mo- re\_a me me|bas- ta Ch'io son ri-|dut- To\_al- lo Mio\_an- ti- co|
w: * man- ie- ra|ta- le.|* man- ie- ra|ta- le. Che non co-|nos- cea pas- cha ne na-|
 A4 G2 c2- c2 B2 | A4 G4 z2 c2 |:[M:2/2] B2 A2 G2 G2 |1[M:6/4] G4 E2 F4 E2 || D4 C4 z2 c2 :|2 %15
w: te- ne. le * ca-|te- ne. Che|me da- va- no|sem- pre guai e|pe- ne. Che|
w: ra- to, li- * be-|ra- to. Da|quel- lo lac- cio|che m'ha- ve li-|ga- to Da|
w: sta- te, An- ti- co|sta- te Es-|tia an- che chi|vol in- na- mo-|ra- to, Es|
w: ta- le, ne * na-|ta- le. Hor|mi- ra- te c'hu-|mor u- ni- ver-|sa- le. Hor|
 G4 E2 F4 E2 || D4 C8 |] %17
w: Sem- pre guai e|pe- ne.|
w: che m'ha- ve li-|ga- to.|
w: vol in- na- mo-|ra- to|
w: mor u- ni- ver-|sa- *|
V:2
 z4 z2 G2 ||[M:2/2][K:treble-8] z4 z2 g2 | g2 g2 e3 d | c2 c2 z2 a2 |[M:3/2] a2 a2 f3 e d2 d2 |1 %5
w: Can-|1.Can-|ta- re vo- glio|sem- pre, Can-|ta- re vo- glio sem- pre,|
w: |2.E|ren- de- re ne|vo- glio, E|ren- de- re ne Vo- glio|
w: |3.Sia|di chi vol A-|mo- re, Sia|di chi Vol- A- mo- re,|
w: |4.M'ha-|vea re- dut- to|di, * m'ha-|vea re- dut- to di, *|
[M:6/4] e4 c2 A3 B c2- ||[M:2/2] c2 B2 c4 :|2[M:3/2] e4 c2 A3 B c2- || c2 B2 c4 z4 | %9
w: sem- pre star' in gio-|* * co.|sem- pre star' in gio-|* * co.|
w: vo- glio gra- tia al|* Cie- lo|Vo- Glio gra- tia al|* Cie- lo.|
w: A- mo- re\_a me me|* bas- ta|A- mo- re\_a me me|* bas- ta|
w: di man- ie- ra ta-|* * le.|di man- ie- ra ta-|* * le.|
 z2 G2 B3 c d2 d2 | c3 d e2 cd ef g2- | g2 f2 g2 e2 d2 c2 |:[M:2/2] d2 f2 e4- |1 %13
w: Poi che son tut- te|rot- te le ca- * * * te-|* * ne. Che me da-|va- no sem-|
w: Che- m'ha- ve\_in tut- to\_in|tut- to li- be- * * * ra-|* * to, Da quel- lo|lac- cio che|
w: Ch'io son ri- dut- To\_al-|lo Mio\_an- ti- co * * * sta-|* * te, Es- tia an-|che chi vol|
w: Che non co- nos- cea|pas- cha ne na- * * * ta-|* * le, Hor mi- ra-|te c'hu- mor|
[M:6/4] e4 c2 A3 B c2- || c2 B2 c2 e2 d2 c2 :|2 e4 c2 A3 B c2- || c2 B2 c8 |] %17
w: * pre guai e pe-|* * ne. Che me da|* pre guai e pe-|* * ne.|
w: * m'ha- ve li- ga-|* * to Da quel- lo|che m'ha- ve li- ga-|* * to.|
w: * in- na- mo- ra-|* * to, Es- tia an-|* in- na- mo- ra-|* * to|
w: * u- ni- ver- sa-|* * le. Hor mi- ra-|mor u- ni- ver- sa-||
V:3
 z8 ||[M:2/2][K:treble-8] z8 | z2 c2 c2 c2 | A3 G F2 F2 |[M:3/2] z2 F2 B3 A G2 G2 |1 %5
w: ||1.Can- ta- re|vo- glio sem- pre,|Can- ta- re vo- glio|
w: ||2.E ren- de-|re ne vo- glio,|E ren- de- re ne|
w: ||3.Sia di chi|vol A- mo- re,|Sia mo- chi Vol- A-|
w: ||4.M'ha- vea re-|dut- to di, *|m'ha- vea re- dut- to|
[M:6/4] c4 A2 F4 A2 ||[M:2/2] G4 C4 :|2[M:3/2] c4 A2 F4 A2 || G4 C4 z2 C2 | E2 F2 G2 G2 D3 E | %10
w: sem- pre star' in|gio- co.|sem- pre star' in|gio- co. Poi|che son tut- te rot- *|
w: Vo- glio gra- tia|Cie- lo|vo- glio gra- tia|Cie- lo Che-|m'ha- ve\_in tut- to\_in tut- to|
w: mo- re\_a me me|bas- ta|mo- re\_a me me|bas- ta Ch'io|son ri- dut- To\_al- lo Mio\_an-|
w: di, man- ie- ra|ta- le.|di man- ie- ra|ta- le. Che|non co- nos- cea pas- cha|
 FGAB c2 A2 A2 G-G | d4 G2 c2 B2 A2 |:[M:2/2] G2 F2 c4- |1[M:6/4] c4 A2 F4 A2 || G4 C2 c2 B2 A2 :|2 %15
w: * * * * * te le ca- *|te- ne. Che me da-|va- no sem-|* pre guai e|pe- ne. Che me da|
w: li- * * be- ra- to, li- be- *|ra- to. Da quel- lo|lac- cio che|* m'ha- ve li-|ga- to Da quel- lo|
w: ti- * * co sta- te, An- ti- co|sta- te Es- tia an-|che chi vol|* in- na- mo-|ra- to, Es- tia an-|
w: ne * * na- ta- le, ne na- *|ta- le. Hor mi- ra-|te c'hu- mor|* u- ni- ver-|sa- le. Hor mi- ra-|
 c4 A2 F4 A2 || G4 C8 |] %17
w: * pre guai e|pe- ne.|
w: * m'ha- ve li-|ga- to.|
w: * in- na- mo-|ra- to|
w: mor u- ni- ver-|sa- le.|

